src/images_karasa_jaga_svg/starmath/res/al21808.svg

<svg height="24" viewBox="0 0 24 24" width="24" xmlns="http://www.w3.org/2000/svg"><path d="m7.3141775 17.999999q-1.2264808-.027874-1.7700348-.40418-.5296167-.376307-.5296167-1.547039v-2.466899q0-.724738-.2508711-1.045296-.2369338-.320557-.9337978-.543554.696864-.209059.9337978-.529617.2508711-.320557.2508711-1.045295v-2.4808369q0-.6132404.1393728-.989547.1393728-.3902438.4599303-.5853658.3205574-.2090592.6968641-.2787456.3902439-.0696865 1.0034843-.0836237v.1533101q-.7247387.1811846-1.0034843.5574913-.2648084.3763065-.2648084 1.1567943v2.3414633q0 .864112-.2648083 1.226481-.2648083.362369-1.0452962.571428.7804879.195122 1.0452962.557491.2648083.362369.2648083 1.226482v2.341462q0 .780488.2648084 1.156795.2787456.376307 1.0034843.557491z"/><path d="m16.685823 6q1.22648.027874 1.756097.4041812.543554.3763066.543554 1.5470382v2.4668996q0 .724738.236934 1.045295.250871.320558.947735.543554-.696864.20906-.947735.529617-.236934.320558-.236934 1.045296v2.480837q0 .61324-.139373.989546-.139373.390244-.45993.585366-.320558.209059-.710802.278746-.376306.06968-.989546.08362v-.153309q.724738-.181184.989546-.557491.278746-.376307.278746-1.156795v-2.341462q0-.864113.264809-1.226482.264808-.362369 1.045296-.571428-.780488-.195122-1.045296-.557491-.264809-.362369-.264809-1.226481v-2.3414613q0-.7804878-.278746-1.1567943-.264808-.3763067-.989546-.5574913z"/><g transform="matrix(0 1 -1 0 24 1)"><circle cx="14" cy="12" r="1"/><circle cx="14" cy="9" r="1"/><circle cx="14" cy="15" r="1"/></g></svg>

<?xml version="1.0" encoding="UTF-8" standalone="no"?>
<!-- Created with Inkscape (http://www.inkscape.org/) -->

<svg
   xmlns:dc="http://purl.org/dc/elements/1.1/"
   xmlns:cc="http://creativecommons.org/ns#"
   xmlns:rdf="http://www.w3.org/1999/02/22-rdf-syntax-ns#"
   xmlns:svg="http://www.w3.org/2000/svg"
   xmlns="http://www.w3.org/2000/svg"
   xmlns:sodipodi="http://sodipodi.sourceforge.net/DTD/sodipodi-0.dtd"
   xmlns:inkscape="http://www.inkscape.org/namespaces/inkscape"
   version="1.1"
   id="svg2"
   width="24"
   height="24"
   viewBox="0 0 24 24"
   sodipodi:docname="al21808.svg"
   inkscape:version="0.92.3 (2405546, 2018-03-11)"
   inkscape:export-filename="/home/rizmut/Dokumen/Rizmut/Github/libreoffice-style-karasa-jaga/build/next/starmath/res/al21808.png"
   inkscape:export-xdpi="96"
   inkscape:export-ydpi="96">
  <metadata
     id="metadata8">
    <rdf:RDF>
      <cc:Work
         rdf:about="">
        <dc:format>image/svg+xml</dc:format>
        <dc:type
           rdf:resource="http://purl.org/dc/dcmitype/StillImage" />
        <dc:title></dc:title>
      </cc:Work>
    </rdf:RDF>
  </metadata>
  <defs
     id="defs6" />
  <sodipodi:namedview
     pagecolor="#ffffff"
     bordercolor="#666666"
     borderopacity="1"
     objecttolerance="10"
     gridtolerance="10"
     guidetolerance="10"
     inkscape:pageopacity="0"
     inkscape:pageshadow="2"
     inkscape:window-width="1366"
     inkscape:window-height="714"
     id="namedview4"
     showgrid="true"
     inkscape:zoom="18.4375"
     inkscape:cx="0.10368253"
     inkscape:cy="13.143505"
     inkscape:window-x="0"
     inkscape:window-y="28"
     inkscape:window-maximized="1"
     inkscape:current-layer="svg2">
    <inkscape:grid
       type="xygrid"
       id="grid823" />
  </sodipodi:namedview>
  <path
     inkscape:connector-curvature="0"
     id="path1488"
     style="font-style:normal;font-variant:normal;font-weight:normal;font-stretch:normal;font-size:14.1085825px;line-height:1.25;font-family:FreeSerif;-inkscape-font-specification:FreeSerif;letter-spacing:0px;word-spacing:0px;fill:#000000;fill-opacity:1;stroke:none;stroke-width:0.32379219"
     d="M 7.3141775,17.999999 Q 6.0876967,17.972125 5.5441427,17.595819 5.014526,17.219512 5.014526,16.04878 v -2.466899 q 0,-0.724738 -0.2508711,-1.045296 Q 4.5267211,12.216028 3.8298571,11.993031 4.5267211,11.783972 4.7636549,11.463414 5.014526,11.142857 5.014526,10.418119 V 7.9372821 q 0,-0.6132404 0.1393728,-0.989547 Q 5.2932716,6.5574913 5.6138291,6.3623693 5.9343865,6.1533101 6.3106932,6.0836237 6.7009371,6.0139372 7.3141775,6 V 6.1533101 Q 6.5894388,6.3344947 6.3106932,6.7108014 6.0458848,7.0871079 6.0458848,7.8675957 v 2.3414633 q 0,0.864112 -0.2648083,1.226481 -0.2648083,0.362369 -1.0452962,0.571428 0.7804879,0.195122 1.0452962,0.557491 0.2648083,0.362369 0.2648083,1.226482 v 2.341462 q 0,0.780488 0.2648084,1.156795 0.2787456,0.376307 1.0034843,0.557491 z" />
  <path
     inkscape:connector-curvature="0"
     id="path1492"
     style="font-style:normal;font-variant:normal;font-weight:normal;font-stretch:normal;font-size:14.1085825px;line-height:1.25;font-family:FreeSerif;-inkscape-font-specification:FreeSerif;letter-spacing:0px;word-spacing:0px;fill:#000000;fill-opacity:1;stroke:none;stroke-width:0.32379219"
     d="m 16.685823,6 q 1.22648,0.027874 1.756097,0.4041812 0.543554,0.3763066 0.543554,1.5470382 v 2.4668996 q 0,0.724738 0.236934,1.045295 0.250871,0.320558 0.947735,0.543554 -0.696864,0.20906 -0.947735,0.529617 -0.236934,0.320558 -0.236934,1.045296 v 2.480837 q 0,0.61324 -0.139373,0.989546 -0.139373,0.390244 -0.45993,0.585366 -0.320558,0.209059 -0.710802,0.278746 -0.376306,0.06968 -0.989546,0.08362 v -0.153309 q 0.724738,-0.181184 0.989546,-0.557491 0.278746,-0.376307 0.278746,-1.156795 v -2.341462 q 0,-0.864113 0.264809,-1.226482 0.264808,-0.362369 1.045296,-0.571428 -0.780488,-0.195122 -1.045296,-0.557491 -0.264809,-0.362369 -0.264809,-1.226481 V 7.8675957 q 0,-0.7804878 -0.278746,-1.1567943 -0.264808,-0.3763067 -0.989546,-0.5574913 z" />
  <g
     id="g828"
     transform="rotate(90,11.5,12.5)">
    <circle
       style="font-style:normal;font-weight:normal;font-size:13.11087418px;line-height:1.25;font-family:sans-serif;letter-spacing:0px;word-spacing:0px;opacity:1;fill:#000000;fill-opacity:1;stroke:none;stroke-width:0.5;stroke-miterlimit:4;stroke-dasharray:none;stroke-opacity:1"
       id="circle872"
       cx="14"
       cy="12"
       r="1" />
    <circle
       r="1"
       cy="9"
       cx="14"
       id="circle893"
       style="font-style:normal;font-weight:normal;font-size:13.11087418px;line-height:1.25;font-family:sans-serif;letter-spacing:0px;word-spacing:0px;opacity:1;fill:#000000;fill-opacity:1;stroke:none;stroke-width:0.5;stroke-miterlimit:4;stroke-dasharray:none;stroke-opacity:1" />
    <circle
       r="1"
       cy="15"
       cx="14"
       id="circle899"
       style="font-style:normal;font-weight:normal;font-size:13.11087418px;line-height:1.25;font-family:sans-serif;letter-spacing:0px;word-spacing:0px;opacity:1;fill:#000000;fill-opacity:1;stroke:none;stroke-width:0.5;stroke-miterlimit:4;stroke-dasharray:none;stroke-opacity:1" />
  </g>
</svg>
